X: 31314
T: Paddy Kelly's
R: reel
M: 4/4
K: Gmajor
|:Bc|dG G2 dGBd|cF F2 cFAc|dG G2 DGBG|(3Bcd cA GABc|
dG G2 DGBd|cF F2 cFAc|dG G2 DGBG|BdcA G2:|
|:Bc|dggf gagf|d2cd ABcA|dg g2 bgaf|defg a2gf|
dggf gagf|d2cd ABcA|dG G2 DGBG|BdcA G2:|

